X: 3
T: Butterfly, The
M: 9/8
L: 1/8
R: slip jig
K: Emin
|: B3 G3 F3 | B3 G3 E3 | B3 G3 F3 | B3 d3 F3 :|
|: B3 e3 g3 | B3 g3 A3 | B3 e3 g3 | b3 g3 A3 :|
|: B3 B3 G3 | B3 B3 d3 | B3 B3 G3 | B3 g3 A3 :| 
fini E3- E3- E3 |]
